X:1
T:James Gibb editions
T:Take the Name of Jesus with you - Barnby
%%score [ ( 1 2 ) ( 3 4 ) ]
L:1/8
Q:1/4=80
M:6/8
K:G
V:1 treble nm="Midi_74"
V:2 treble 
V:3 bass nm="Midi_74"
V:4 bass 
V:1
"^William Howard Doane\n(1832-1915)""^The precious Name (87. 87. 67)""^Take the Name of Jesus with you""^Joseph Barnby\n(1838-96)" B2 B d2 B | %1
w: |
 ABA G2 D || E2 E D2 G | B2 A A3 || B2 B d2 B | AcB A2 G || G2 G F2 B |[M:6/8] ^cdc B3 || %8
w: |||||||
"^Chorus" A2 B A3 | BcB !fermata!e3 || E2 F G2 c | (B3 AG)A | G6 || G6 | G6 |] %15
w: Pre- cious Name!|O * how sweet!|Hope of earth and|joy * * of|heaven!|A-|men.|
V:2
 G2 G G2 D | C-DC B,2 B, || G,2 A, D2 B, | ^C2 G F3 || G2 G G2 D | CED C2 B, || E2 ^C D2 D | %7
[M:6/8] E-.FE D3 || F2 G F3 | G2 =F E3 || E2 D D2 C | (D2 G FE)F | G6 || E6 | D6 |] %15
V:3
 D2 D B,2 G, | F,2 F, G,2 G, || G,2 F, G,2 G, | G,E,^C D3 || D2 D B,2 G, | G,2 F, F,2 G, || %6
 B,2 B, B,2 F, |[M:6/8] ^A,2 F, B,3 || !courtesy!=C2 B, C3 | B,A,B, C3 || G,2 A, G,2 G, | %11
 (D,G,B, C2) C | B,6 || C6 | B,6 |] %15
V:4
 G,2 G, G,,2 B,, | D,2 D, G,2 G, || C,2 C, B,,2 E, | A,,2 A,, D,3 || G,2 G, G,,2 B,, | %5
 D,2 D, ^D,2 E, || E,2 E, F,2 F, |[M:6/8] F,2 F, B,,3 || D,2 D, D,3 | G,2 G, !fermata!C,3 || %10
 C,2 C, B,,2 E, | D,3- D,2 D, | G,,6 || C,6 | G,,6 |] %15

